assets/sections/real-estate-building-house.svg

<svg xmlns="http://www.w3.org/2000/svg" viewBox="0 0 32 32"><g fill="#5B4594"><path d="M30.48 18.29h-1.53v-1.52h-1.52v-1.53h-1.52V0H10.67v9.15H9.14V6.1H6.1V1.53H4.57V6.1H1.52v3.05H0V32h30.48v-9.14H32v-3.05h-1.52ZM3.05 7.62h4.57v1.53H3.05Zm7.62 12.19H9.14v3.05h1.53v7.62H1.52V10.67h9.15Zm1.52-18.28h12.19V12.2h-1.52v-1.53h-1.53V9.15h-1.52v1.52h-1.52v1.53h-1.53v1.52h-1.52v1.52h-1.52v1.53h-1.53Zm16.76 28.95h-4.57v-6.09h-1.52v6.09h-4.57v-1.52h1.52v-1.53h-1.52v-3.04h-1.53v6.09h-4.57V19.81h1.53v-1.52h1.52v-1.52h1.52v-1.53h1.53v-1.52h1.52V12.2h1.52v1.52h1.53v1.52h1.52v1.53h1.53v1.52h1.52v1.52h1.52Z"/><path d="M15.24 19.81h10.67v1.53H15.24zM18.29 22.86h4.57v1.53h-4.57zM19.81 3.05h3.05V6.1h-3.05zM13.72 7.62h3.04v3.05h-3.04zM13.72 3.05h3.04V6.1h-3.04zM4.57 25.91h3.05v3.05H4.57zM4.57 19.81h3.05v3.05H4.57zM4.57 13.72h3.05v3.05H4.57z"/></g></svg>

<svg xmlns="http://www.w3.org/2000/svg" viewBox="0 0 32 32"><title>real-estate-building-house</title><g><path d="M30.48,18.29H28.95V16.77H27.43V15.24H25.91V0H10.67V9.15H9.14V6.1H6.1V1.53H4.57V6.1H1.52V9.15H0V32H30.48V22.86H32V19.81H30.48ZM3.05,7.62H7.62V9.15H3.05Zm7.62,12.19H9.14v3.05h1.53v7.62H1.52V10.67h9.15ZM12.19,1.53H24.38V12.2H22.86V10.67H21.33V9.15H19.81v1.52H18.29V12.2H16.76v1.52H15.24v1.52H13.72v1.53H12.19ZM28.95,30.48H24.38V24.39H22.86v6.09H18.29V28.96h1.52V27.43H18.29V24.39H16.76v6.09H12.19V19.81h1.53V18.29h1.52V16.77h1.52V15.24h1.53V13.72h1.52V12.2h1.52v1.52h1.53v1.52h1.52v1.53h1.53v1.52h1.52v1.52h1.52Z" fill="#5B4594"></path><rect x="15.24" y="19.81" width="10.67" height="1.53" fill="#5B4594"></rect><rect x="18.29" y="22.86" width="4.57" height="1.53" fill="#5B4594"></rect><rect x="19.81" y="3.05" width="3.05" height="3.05" fill="#5B4594"></rect><rect x="13.72" y="7.62" width="3.04" height="3.05" fill="#5B4594"></rect><rect x="13.72" y="3.05" width="3.04" height="3.05" fill="#5B4594"></rect><rect x="4.57" y="25.91" width="3.05" height="3.05" fill="#5B4594"></rect><rect x="4.57" y="19.81" width="3.05" height="3.05" fill="#5B4594"></rect><rect x="4.57" y="13.72" width="3.05" height="3.05" fill="#5B4594"></rect></g></svg>
